X:72
T: Et wolt e Bauer seng Diechterche bestuoden, S. 39f
N: L0032
O: Luxemburg 
S: Die Luxemburger Volkslieder lterer Zeit, Luxemburg 1904 posth.]
R: Hochzeitslied]
M: 2/4
L: 1/8
K: G
G | G2B2 | d2dB | dccA | c2B
G | G2B2 | d3B | dccA | B2z
d | D2GB | d2DD | G3

@@@ Tune index: 8126
